**harmony	**harte	**kern	**silbe	**kern	**silbe	**rhyme	**timestamp	**phrase
*M4/4	*M4/4	*ICvox	*	*ICvox	*	*	*	*
*	*	*VRlead	*	*VRbacking*VRharmonize	*	*	*	*
*	*	*Hstimme	*	*Nstimme	*	*	*	*
*E:	*E:	*E:	*	*E:	*	*	*	*
*	*	*M4/4	*	*M4/4	*	*	*	*
*	*	*clefF4	*	*clefC3	*	*	*	*
1r;	1r	r;	.	r;	.	.	0	.
=1	=1	=1	=1	=1	=1	=1	=1	=1
*>Letter>A	*>Letter>A	*>Letter>A	*>Letter>A	*>Letter>A	*>Letter>A	*>Letter>A	*>Letter>A	*>Letter>A
*>Label>Intro	*>Label>Intro	*>Label>Intro	*>Label>Intro	*>Label>Intro	*>Label>Intro	*>Label>Intro	*>Label>Intro	*>Label>Intro
4EM	E:maj	1r	.	2r	.	.	0.372	newline
4F#mm	F#:min7	.	.	.	.	.	0.952	.
2EM	E:maj/3	.	.	8G# 8B	Ooh	.	1.532	.
.	.	.	.	8A 8c	_	.	.	.
.	.	.	.	8B 8d	_	.	.	.
.	.	.	.	[8c [8e	_	.	.	.
=2	=2	=2	=2	=2	=2	=2	=2	=2
1CM	C:maj	1r	.	4.c] 4.e]	_	.	2.693	newline
.	.	.	.	[8B [8d	_	.	.	.
.	.	.	.	4.B] 4.d]	_	.	.	.
.	.	.	.	[8A [8c	_	.	.	.
=3	=3	=3	=3	=3	=3	=3	=3	=3
1DM	D:maj	1r	.	2A] 2c]	_	.	4.986	.
.	.	.	.	4.F# 4.A	_	.	.	.
.	.	.	.	[8G# [8B	_	.	.	.
=4	=4	=4	=4	=4	=4	=4	=4	=4
1EM	E:maj	1r	.	1G#] 1B]	_	.	7.28	.
=5	=5	=5	=5	=5	=5	=5	=5	=5
4EM	E:maj	1r	.	4r	.	.	9.574	.
4F#mm	F#:min7	.	.	8r	.	.	10.147	.
.	.	.	.	8r	.	.	.	.
2EM	E:maj/3	.	.	8G# 8B	Ooh	.	10.721	.
.	.	.	.	8A 8c	_	.	.	.
.	.	.	.	8B 8d	_	.	.	.
.	.	.	.	[8c [8e	_	.	.	.
=6	=6	=6	=6	=6	=6	=6	=6	=6
1CM	C:maj	1r	.	4.c] 4.e]	_	.	11.867	newline
.	.	.	.	[8B [8d	_	.	.	.
.	.	.	.	4.B] 4.d]	_	.	.	.
.	.	.	.	[8A [8c	_	.	.	.
=7	=7	=7	=7	=7	=7	=7	=7	=7
1DM	D:maj	1r	.	2A] 2c]	_	.	14.16	.
.	.	.	.	4.F# 4.A	_	.	.	.
.	.	.	.	[8G# [8B	_	.	.	.
=8	=8	=8	=8	=8	=8	=8	=8	=8
*>Letter>B	*>Letter>B	*>Letter>B	*>Letter>B	*>Letter>B	*>Letter>B	*>Letter>B	*>Letter>B	*>Letter>B
*>Label>Verse	*>Label>Verse	*>Label>Verse	*>Label>Verse	*>Label>Verse	*>Label>Verse	*>Label>Verse	*>Label>Verse	*>Label>Verse
.	.	8Aq	_	.	.	.	.	.
1EM	E:maj	[2B	How	1G#] 1B]	_	.	16.453	newline
.	.	8B]	_	.	.	.	.	.
.	.	8r	.	.	.	.	.	.
.	.	4r	.	.	.	.	.	.
=9	=9	=9	=9	=9	=9	=9	=9	=9
1C#mm	C#:min7	2r	.	1r	.	.	18.722	.
.	.	8.B	How	.	.	.	.	.
.	.	[16A	can	.	.	.	.	.
.	.	8A]	_	.	.	.	.	.
.	.	8G#	it	.	.	.	.	.
=10	=10	=10	=10	=10	=10	=10	=10	=10
1DM	D:maj	8F#	_	1r	.	.	20.991	.
.	.	4F#	be	.	.	.	.	.
.	.	8r	.	.	.	.	.	.
.	.	4.r	.	.	.	.	.	.
.	.	16F#	That	.	.	.	.	.
.	.	16G#	a	.	.	.	.	.
=11	=11	=11	=11	=11	=11	=11	=11	=11
1Bm	B:min	4A	love	1r	.	.	23.26	.
.	.	4r	.	.	.	.	.	.
.	.	8G#q	_	.	.	.	.	.
.	.	8.A	carved	.	.	.	.	.
.	.	[16G#	out	.	.	.	.	.
.	.	8G#]	_	.	.	.	.	.
.	.	8F#	of	.	.	.	.	.
=12	=12	=12	=12	=12	=12	=12	=12	=12
1EM	E:maj	8.G#	ca-	1r	.	.	25.529	newline
.	.	[16E	-ring	.	.	.	.	.
.	.	8E]	_	.	.	.	.	.
.	.	8r	.	.	.	.	.	.
.	.	8E	fa-	.	.	.	.	.
.	.	8F#	-shioned	.	.	.	.	.
.	.	8G#	by	.	.	.	.	.
.	.	8Aq	_	.	.	.	.	.
.	.	[8B	fate	.	.	.	.	.
=13	=13	=13	=13	=13	=13	=13	=13	=13
1C#mm	C#:min7	8B]	_	1r	.	.	27.828	.
.	.	4r	.	.	.	.	.	.
.	.	8~BB	could	.	.	.	.	.
.	.	8.B	suf-	.	.	.	.	.
.	.	[16A	-fer	.	.	.	.	.
.	.	8A]	_	.	.	.	.	.
.	.	8G#	so	.	.	.	.	.
=14	=14	=14	=14	=14	=14	=14	=14	=14
1DM	D:maj	8F#	_	1r	.	.	30.126	.
.	.	4F#	hard	.	.	.	.	.
.	.	8r	.	.	.	.	.	.
.	.	4r	.	.	.	.	.	.
.	.	8r	.	.	.	.	.	.
.	.	16F#	From	.	.	.	.	.
.	.	16G#	the	.	.	.	.	.
=15	=15	=15	=15	=15	=15	=15	=15	=15
1Bm	B:min	4A	games	1r	.	.	32.424	.
.	.	4r	.	.	.	.	.	.
.	.	8G#q	_	.	.	.	.	.
.	.	8.A	we	.	.	.	.	.
.	.	[16G#	play	.	.	.	.	.
.	.	8G#]	_	.	.	.	.	.
.	.	8F#	too	.	.	.	.	.
=16	=16	=16	=16	=16	=16	=16	=16	=16
1EM	E:maj	8.G#	of-	1r	.	.	34.723	newline
.	.	[16E	-ten	.	.	.	.	.
.	.	8E]	_	.	.	.	.	.
.	.	8r	.	.	.	.	.	.
.	.	2r	.	.	.	.	.	.
=17	=17	=17	=17	=17	=17	=17	=17	=17
1C#mm	C#:min7	4r	.	1r	.	.	37.004	.
.	.	8r	.	.	.	.	.	.
.	.	8BB	But	.	.	.	.	.
.	.	8Aq	_	.	.	.	.	.
.	.	8.B	ma-	.	.	.	.	.
.	.	[16A	-king	.	.	.	.	.
.	.	8A]	_	.	.	.	.	.
.	.	8G#	mis	.	.	.	.	.
=18	=18	=18	=18	=18	=18	=18	=18	=18
1DM	D:maj	8F#	_	1r	.	.	39.285	.
.	.	4F#	takes	.	.	.	.	.
.	.	8r	.	.	.	.	.	.
.	.	4r	.	.	.	.	.	.
.	.	8r	.	.	.	.	.	.
.	.	16F#	is	.	.	.	.	.
.	.	16G#	a	.	.	.	.	.
=19	=19	=19	=19	=19	=19	=19	=19	=19
1Bm	B:min	4A	part	1r	.	.	41.567	.
.	.	8r	.	.	.	.	.	.
.	.	8BB	of	.	.	.	.	.
.	.	8G#q	_	.	.	.	.	.
.	.	8.A	life's	.	.	.	.	.
.	.	[16G#	im	.	.	.	.	.
.	.	8G#]	_	.	.	.	.	.
.	.	8F#	per-	.	.	.	.	.
=20	=20	=20	=20	=20	=20	=20	=20	=20
1EM	E:maj	8.G#	-fec-	1r	.	.	43.848	newline
.	.	[16B	-tions	.	.	.	.	.
.	.	8B]	_	.	.	.	.	.
.	.	8r	.	.	.	.	.	.
.	.	8E	born	.	.	.	.	.
.	.	8F#	of	.	.	.	.	.
.	.	8G#	the	.	.	.	.	.
.	.	16B	years	.	.	.	.	.
.	.	16c#	_	.	.	.	.	.
=21	=21	=21	=21	=21	=21	=21	=21	=21
1C#mm	C#:min7	4B	_	1r	.	.	46.138	.
.	.	4r	.	.	.	.	.	.
.	.	8Aq	_	.	.	.	.	.
.	.	8.B	is	.	.	.	.	.
.	.	[16A	it	.	.	.	.	.
.	.	8A]	_	.	.	.	.	.
.	.	8G#	so	.	.	.	.	.
=22	=22	=22	=22	=22	=22	=22	=22	=22
1DM	D:maj	8F#	_	1r	.	.	48.429	.
.	.	4F#	wrong	.	.	.	.	.
.	.	8r	.	.	.	.	.	.
.	.	4r	.	.	.	.	.	.
.	.	8r	.	.	.	.	.	.
.	.	16F#	To	.	.	.	.	.
.	.	16G#	be	.	.	.	.	.
=23	=23	=23	=23	=23	=23	=23	=23	=23
1Bm	B:min	4A	hu-	1r	.	.	50.72	.
.	.	8G#	-man	.	.	.	.	.
.	.	8F#	_	.	.	.	.	.
.	.	4F#	af-	.	.	.	.	.
.	.	8G#	-ter	.	.	.	.	.
.	.	8E	_	.	.	.	.	.
=24	=24	=24	=24	=24	=24	=24	=24	=24
1EM	E:maj	1E	all?	[1g#	Ha,	.	53.01	newline
=25	=25	=25	=25	=25	=25	=25	=25	=25
4EM	E:maj	1r	.	4g#]	_	.	55.313	.
4F#mm	F#:min7	.	.	4g#	drawn	.	55.889	.
2EM	E:maj/3	.	.	8g#	in-	.	56.465	.
.	.	.	.	8f#	-to	.	.	.
.	.	.	.	8e	the	.	.	.
.	.	.	.	[8g	stream	A	.	.
=26	=26	=26	=26	=26	=26	=26	=26	=26
*>Letter>A	*>Letter>A	*>Letter>A	*>Letter>A	*>Letter>A	*>Letter>A	*>Letter>A	*>Letter>A	*>Letter>A
*>Label>Chorus	*>Label>Chorus	*>Label>Chorus	*>Label>Chorus	*>Label>Chorus	*>Label>Chorus	*>Label>Chorus	*>Label>Chorus	*>Label>Chorus
1CM	C:maj	1r	.	2g]	_	.	57.616	newline
.	.	.	.	4r	.	.	.	.
.	.	.	.	8aq	_	.	.	.
.	.	.	.	8b	of	.	.	.
.	.	.	.	[8a	un	.	.	.
=27	=27	=27	=27	=27	=27	=27	=27	=27
1DM	D:maj	1r	.	4a]	_	.	59.905	.
.	.	.	.	8eq	_	.	.	.
.	.	.	.	8f#	de-	.	.	.
.	.	.	.	[8e	-fined	.	.	.
.	.	.	.	4e]	_	.	.	.
.	.	.	.	8Bq	_	.	.	.
.	.	.	.	8c#	il-	.	.	.
.	.	.	.	[8B	-lu	B	.	.
=28	=28	=28	=28	=28	=28	=28	=28	=28
1EM	E:maj	1r	.	4.B]	_	.	62.195	.
.	.	.	.	8f#q	_	.	.	.
.	.	.	.	[8g#	sion	.	.	.
.	.	.	.	2g#]	_	.	.	.
=29	=29	=29	=29	=29	=29	=29	=29	=29
4EM	E:maj	1r	.	4r	.	.	64.484	.
4F#mm	F#:min7	.	.	4g#	those	.	65.056	.
2EM	E:maj/3	.	.	8g#	di-	.	65.629	.
.	.	.	.	8f#	-a-	.	.	.
.	.	.	.	8e	-mond	.	.	.
.	.	.	.	[8g	dreams	A	.	.
=30	=30	=30	=30	=30	=30	=30	=30	=30
1CM	C:maj	1r	.	2g]	_	.	66.773	newline
.	.	.	.	4r	.	.	.	.
.	.	.	.	8aq	_	.	.	.
.	.	.	.	8b	they	.	.	.
.	.	.	.	[8a	can't	.	.	.
=31	=31	=31	=31	=31	=31	=31	=31	=31
1DM	D:maj	1r	.	4a]	_	.	69.047	.
.	.	.	.	8eq	_	.	.	.
.	.	.	.	8f#	dis-	.	.	.
.	.	.	.	[8e	-guise	.	.	.
.	.	.	.	4e]	_	.	.	.
.	.	.	.	8Bq	_	.	.	.
.	.	.	.	8c#	the	.	.	.
.	.	.	.	[8B	truth!	B	.	.
=32	=32	=32	=32	=32	=32	=32	=32	=32
1EM	E:maj	1r	.	1B]	_	.	71.32	.
=33	=33	=33	=33	=33	=33	=33	=33	=33
4EM	E:maj	8r	.	1r	.	.	73.593	.
.	.	8B	That	.	.	.	.	.
4F#mm	F#:min7	8B	there	.	.	.	74.161	.
.	.	8e	is	.	.	.	.	.
2EM	E:maj/3	8B	some-	.	.	.	74.729	.
.	.	8A	-thing	.	.	.	.	.
.	.	8G	a-	.	.	.	.	.
.	.	8A	-bout	.	.	.	.	.
=34	=34	=34	=34	=34	=34	=34	=34	=34
1CM	C:maj	8G	_	1r	.	.	75.866	newline
.	.	4G	you	.	.	.	.	.
.	.	8r	.	.	.	.	.	.
.	.	4r	.	.	.	.	.	.
.	.	8r	.	.	.	.	.	.
.	.	8Aq	_	.	.	.	.	.
.	.	8B	ba	.	.	.	.	.
=35	=35	=35	=35	=35	=35	=35	=35	=35
1DM	D:maj	8A	_	1r	.	.	78.156	.
.	.	4A	by	.	.	.	.	.
.	.	8r	.	.	.	.	.	.
.	.	4r	.	.	.	.	.	.
.	.	8Gq	_	.	.	.	.	.
.	.	8A	so	.	.	.	.	.
.	.	[8B	right	.	.	C	.	.
=36	=36	=36	=36	=36	=36	=36	=36	=36
1EM	E:maj	2.B_	_	1r	.	.	80.446	.
.	.	8B]	_	.	.	.	.	.
.	.	8r	.	.	.	.	.	.
=37	=37	=37	=37	=37	=37	=37	=37	=37
4EM	E:maj	8r	.	1r	.	.	82.736	.
.	.	8B	I	.	.	.	.	.
4F#mm	F#:min7	8B	would-	.	.	.	83.308	.
.	.	8B	-n't	.	.	.	.	.
2EM	E:maj/3	8B	be	.	.	.	83.88	.
.	.	8A	_	.	.	.	.	.
.	.	8G	with-	.	.	.	.	.
.	.	8A	-out	.	.	.	.	.
=38	=38	=38	=38	=38	=38	=38	=38	=38
1CM	C:maj	8G	_	1r	.	.	85.025	newline
.	.	4G	you	.	.	.	.	.
.	.	8r	.	.	.	.	.	.
.	.	8B	ba	.	.	.	.	.
.	.	8c	_	.	.	.	.	.
.	.	8B	_	.	.	.	.	.
.	.	8A	by	.	.	.	.	.
=39	=39	=39	=39	=39	=39	=39	=39	=39
1DM	D:maj	2r	.	1r	.	.	87.33	.
.	.	4r	.	.	.	.	.	.
.	.	8c#	to-	.	.	.	.	.
.	.	[8B	-night	.	.	C	.	.
=40	=40	=40	=40	=40	=40	=40	=40	=40
*>Letter>B	*>Letter>B	*>Letter>B	*>Letter>B	*>Letter>B	*>Letter>B	*>Letter>B	*>Letter>B	*>Letter>B
*>Label>Verse	*>Label>Verse	*>Label>Verse	*>Label>Verse	*>Label>Verse	*>Label>Verse	*>Label>Verse	*>Label>Verse	*>Label>Verse
1EM	E:maj	2.B]	_	1r	.	.	89.635	->newline
.	.	4r	.	.	.	.	.	.
=41	=41	=41	=41	=41	=41	=41	=41	=41
1C#mm	C#:min7	4r	.	1r	.	.	91.911	.
.	.	8r	.	.	.	.	.	.
.	.	8~BB	If	.	.	.	.	.
.	.	8.B	e-	.	.	.	.	.
.	.	[16A	-ver	.	.	.	.	.
.	.	8A]	_	.	.	.	.	.
.	.	8G#	our	.	.	.	.	.
=42	=42	=42	=42	=42	=42	=42	=42	=42
1DM	D:maj	8F#	_	1r	.	.	94.187	.
.	.	4F#	love	.	.	.	.	.
.	.	8r	.	.	.	.	.	.
.	.	8.r	.	.	.	.	.	.
.	.	[16F#	was	.	.	.	.	.
.	.	16F#]	_	.	.	.	.	.
.	.	8G#	con	.	.	.	.	.
.	.	16G#Q	_	.	.	.	.	.
.	.	[16A	cealed	.	.	D	.	.
=43	=43	=43	=43	=43	=43	=43	=43	=43
1Bm	B:min	4A]	_	1r	.	.	96.463	.
.	.	4r	.	.	.	.	.	.
.	.	8G#q	_	.	.	.	.	.
.	.	8.A	no	.	.	.	.	.
.	.	[16G#	one	.	.	.	.	.
.	.	8G#]	_	.	.	.	.	.
.	.	8F#	can	.	.	.	.	.
=44	=44	=44	=44	=44	=44	=44	=44	=44
1EM	E:maj	8.G#	say	1r	.	.	98.74	newline
.	.	[16B	that	.	.	.	.	.
.	.	8B]	_	.	.	.	.	.
.	.	8r	.	.	.	.	.	.
.	.	8E	we	.	.	.	.	.
.	.	8F#	did-	.	.	.	.	.
.	.	8G#	-n't	.	.	.	.	.
.	.	16B	feel	.	.	D	.	.
.	.	16c#	_	.	.	.	.	.
=45	=45	=45	=45	=45	=45	=45	=45	=45
1C#mm	C#:min7	4B	_	1r	.	.	101.023	.
.	.	4r	.	.	.	.	.	.
.	.	8Aq	_	.	.	.	.	.
.	.	8.B	a	.	.	.	.	.
.	.	[16A	mil	.	.	.	.	.
.	.	8A]	_	.	.	.	.	.
.	.	8G#	lion	.	.	.	.	.
=46	=46	=46	=46	=46	=46	=46	=46	=46
1DM	D:maj	8F#	_	1r	.	.	103.307	.
.	.	4F#	things	.	.	.	.	.
.	.	8r	.	.	.	.	.	.
.	.	4r	.	.	.	.	.	.
.	.	8r	.	.	.	.	.	.
.	.	16F#	and	.	.	.	.	.
.	.	16G#	a	.	.	.	.	.
=47	=47	=47	=47	=47	=47	=47	=47	=47
1Bm	B:min	4A	per-	1r	.	.	105.591	.
.	.	8G#	-fect	.	.	.	.	.
.	.	8F#	_	.	.	.	.	.
.	.	4F#	dream	.	.	.	.	.
.	.	8G#	of	.	.	.	.	.
.	.	8E	_	.	.	.	.	.
=48	=48	=48	=48	=48	=48	=48	=48	=48
1EM	E:maj	2E	life	1r	.	.	107.875	newline
.	.	4r	.	.	.	.	.	.
.	.	8r	.	.	.	.	.	.
.	.	[8B	Gone	.	.	.	.	.
=49	=49	=49	=49	=49	=49	=49	=49	=49
1C#mm	C#:min7	4B]	_	4r	.	.	110.168	.
.	.	4r	.	8r	.	.	.	.
.	.	.	.	8r	.	.	.	.
.	.	8.B	Fra-	8.e	Fra-	.	.	.
.	.	[16A	-gile,	[16c#	-gile,	.	.	.
.	.	8A]	_	8c#]	_	.	.	.
.	.	8G#	but	8B	but	.	.	.
=50	=50	=50	=50	=50	=50	=50	=50	=50
1DM	D:maj	8F#	_	8A	_	.	112.462	.
.	.	4F#	free	4A	free	D	.	.
.	.	8r	.	8r	.	.	.	.
.	.	4r	.	2r	.	.	.	.
.	.	8r	.	.	.	.	.	.
.	.	16F#	we	.	.	.	.	.
.	.	16G#	re-	.	.	.	.	.
=51	=51	=51	=51	=51	=51	=51	=51	=51
1Bm	B:min	4A	-main,	1r	.	.	114.755	.
.	.	4r	.	.	.	.	.	.
.	.	8G#q	_	.	.	.	.	.
.	.	8.A	ten-	.	.	.	.	.
.	.	[16G#	-der	.	.	.	.	.
.	.	8G#]	_	.	.	.	.	.
.	.	8F#	to-	.	.	.	.	.
=52	=52	=52	=52	=52	=52	=52	=52	=52
1EM	E:maj	8.G#	-ge-	2r	.	.	117.049	newline
.	.	[16B	-ther	.	.	.	.	.
.	.	16B]	_	.	.	.	.	.
.	.	16r	.	.	.	.	.	.
.	.	8BB	if	.	.	.	.	.
.	.	8E	not	8G#	not	.	.	.
.	.	8F#	so	8A	so	.	.	.
.	.	8G#	in	8B	in	.	.	.
.	.	16B	love	[8e	love	.	.	.
.	.	16c#	_	.	.	.	.	.
=53	=53	=53	=53	=53	=53	=53	=53	=53
1C#mm	C#:min7	4B	_	4e]	_	.	119.33	.
.	.	4r	.	4r	.	.	.	.
.	.	8Aq	_	8c#q	_	.	.	.
.	.	8.B	it's	8.e	it's	.	.	.
.	.	[16A	not	[16c#	not	.	.	.
.	.	8A]	_	8c#]	_	.	.	.
.	.	8G#	so	8B	so	.	.	.
=54	=54	=54	=54	=54	=54	=54	=54	=54
1DM	D:maj	8F#	_	8A	_	.	121.611	.
.	.	4F#	wrong	4A	wrong	.	.	.
.	.	8r	.	8r	.	.	.	.
.	.	8r	.	2r	.	.	.	.
.	.	8E	we're	.	.	.	.	.
.	.	8F#	on-	.	.	.	.	.
.	.	8G#	-ly	.	.	.	.	.
=55	=55	=55	=55	=55	=55	=55	=55	=55
1Bm	B:min	4A	hu-	1r	.	.	123.892	.
.	.	8G#	-man	.	.	.	.	.
.	.	8F#	_	.	.	.	.	.
.	.	4F#	af-	.	.	.	.	.
.	.	8G#	-ter	.	.	.	.	.
.	.	8E	_	.	.	.	.	.
=56	=56	=56	=56	=56	=56	=56	=56	=56
1EM	E:maj	[2.E	all	[1e [1g#	Ha,	.	126.173	newline
.	.	8E]	_	.	.	.	.	.
.	.	16F#	_	.	.	.	.	.
.	.	[16G#	_	.	.	.	.	.
=57	=57	=57	=57	=57	=57	=57	=57	=57
4EM	E:maj	4G#]	_	4e] 4g#]	_	.	128.476	.
4F#mm	F#:min7	4r	.	4e 4g#	these	.	129.052	.
2EM	E:maj/3	2r	.	8e 8g#	chan	.	129.628	.
.	.	.	.	8c# 8f#	_	.	.	.
.	.	.	.	8B 8e	ging	.	.	.
.	.	.	.	[8B [8g	years	E	.	.
=58	=58	=58	=58	=58	=58	=58	=58	=58
*>Letter>C	*>Letter>C	*>Letter>C	*>Letter>C	*>Letter>C	*>Letter>C	*>Letter>C	*>Letter>C	*>Letter>C
*>Label>Chorus	*>Label>Chorus	*>Label>Chorus	*>Label>Chorus	*>Label>Chorus	*>Label>Chorus	*>Label>Chorus	*>Label>Chorus	*>Label>Chorus
1CM	C:maj	1r	.	2B] 2g]	_	.	130.78	newline
.	.	.	.	4r	.	.	.	.
.	.	.	.	8aq	_	.	.	.
.	.	.	.	8d 8b	they	.	.	.
.	.	.	.	[8d [8a	add	.	.	.
=59	=59	=59	=59	=59	=59	=59	=59	=59
1DM	D:maj	1r	.	4d] 4a]	_	.	133.077	.
.	.	.	.	8eq	_	.	.	.
.	.	.	.	8A 8f#	to	.	.	.
.	.	.	.	8A [8e	your	.	.	.
.	.	.	.	4A 4e]	_	.	.	.
.	.	.	.	8Bq	_	.	.	.
.	.	.	.	8A 8c#	con-	.	.	.
.	.	.	.	[8G# [8B	-fu	B	.	.
=60	=60	=60	=60	=60	=60	=60	=60	=60
1EM	E:maj	1r	.	4.G#] 4.B]	_	.	135.374	.
.	.	.	.	8Aq 8f#q	_	.	.	.
.	.	.	.	[8B [8g#	sion!	.	.	.
.	.	.	.	2B] 2g#]	_	.	.	.
=61	=61	=61	=61	=61	=61	=61	=61	=61
4EM	E:maj	1r	.	8r	.	.	137.671	.
.	.	.	.	8B 8g#	Oh-	.	.	.
4F#mm	F#:min7	.	.	8B 8g#	-ho,	.	138.245	.
.	.	.	.	8B 8a	you	.	.	.
2EM	E:maj/3	.	.	8B 8g#	need	.	138.819	.
.	.	.	.	8B 8f#	_	.	.	.
.	.	.	.	8B 8e	to	.	.	.
.	.	.	.	[8B [8g	hear	E	.	.
=62	=62	=62	=62	=62	=62	=62	=62	=62
1CM	C:maj	1r	.	2B] 2g]	_	.	139.967	newline
.	.	.	.	4r	.	.	.	.
.	.	.	.	8aq	_	.	.	.
.	.	.	.	8d 8b	the	.	.	.
.	.	.	.	[8d [8a	time	.	.	.
=63	=63	=63	=63	=63	=63	=63	=63	=63
1DM	D:maj	1r	.	4d] 4a]	_	.	142.241	.
.	.	.	.	8eq	_	.	.	.
.	.	.	.	8A 8f#	that	.	.	.
.	.	.	.	[8A [8e	told	.	.	.
.	.	.	.	4A] 4e]	_	.	.	.
.	.	.	.	8Bq	_	.	.	.
.	.	.	.	8A 8c#	the	.	.	.
.	.	.	.	[8G# [8B	truth	B	.	.
=64	=64	=64	=64	=64	=64	=64	=64	=64
1EM	E:maj	1r	.	1G#] 1B]	_	.	144.515	.
=65	=65	=65	=65	=65	=65	=65	=65	=65
4EM	E:maj	8r	.	2r	.	.	146.789	.
.	.	8B	Be-	.	.	.	.	.
4F#mm	F#:min7	8B	-cause	.	.	.	147.358	.
.	.	8e	there's	.	.	.	.	.
2EM	E:maj/3	8B	some-	8e 8g#	Some-	.	147.926	.
.	.	8A	-thing	8c# 8f#	-thing	.	.	.
.	.	8G	a-	8B 8e	a-	.	.	.
.	.	8A	-bout	[8B [8g	-bout	.	.	.
=66	=66	=66	=66	=66	=66	=66	=66	=66
1CM	C:maj	8G	_	2B] 2g]	_	.	149.063	newline
.	.	4G	you	.	.	.	.	.
.	.	8r	.	.	.	.	.	.
.	.	4r	.	4r	.	.	.	.
.	.	.	.	8aq	_	.	.	.
.	.	8r	.	8d 8b	the	.	.	.
.	.	8Aq	_	.	.	.	.	.
.	.	8B	ba	[8d [8a	way	.	.	.
=67	=67	=67	=67	=67	=67	=67	=67	=67
1DM	D:maj	8A	_	4d] 4a]	_	.	151.353	.
.	.	4A	by	.	.	.	.	.
.	.	.	.	8eq	_	.	.	.
.	.	.	.	8A 8f#	you	.	.	.
.	.	8r	.	8A [8e	all	.	.	.
.	.	4r	.	4A 4e]	_	.	.	.
.	.	8Gq	_	8Bq	_	.	.	.
.	.	8A	so	8A 8c#	sur-	.	.	.
.	.	[8B	right	[8G# [8B	-vive	.	.	.
=68	=68	=68	=68	=68	=68	=68	=68	=68
1EM	E:maj	2.B_	_	4.G#] 4.B]	_	.	153.643	.
.	.	.	.	8Aq 8f#q	_	.	.	.
.	.	.	.	[8B [8g#	_	.	.	.
.	.	.	.	2B] 2g#]	_	.	.	.
.	.	8B]	_	.	.	.	.	.
.	.	8r	.	.	.	.	.	.
=69	=69	=69	=69	=69	=69	=69	=69	=69
4EM	E:maj	8r	.	2r	.	.	155.933	.
.	.	8A#q	_	.	.	.	.	.
.	.	8B	I	.	.	.	.	.
.	.	8A#q	_	.	.	.	.	.
4F#mm	F#:min7	8B	could	.	.	.	156.506	.
.	.	8A#q	_	.	.	.	.	.
.	.	8B	n't	.	.	.	.	.
2EM	E:maj/3	8B	live	8B 8g#	I	.	157.078	.
.	.	8A	_	8B 8f#	could-	.	.	.
.	.	8G	with-	8B 8e	-n't	.	.	.
.	.	8A	-out	[8B [8g	live	.	.	.
=70	=70	=70	=70	=70	=70	=70	=70	=70
1CM	C:maj	8G	_	2B] 2g]	_	.	158.224	newline
.	.	4G	you	.	.	.	.	.
.	.	8r	.	.	.	.	.	.
.	.	8B	ba	4r	.	.	.	.
.	.	8c	_	.	.	.	.	.
.	.	.	.	8aq	_	.	.	.
.	.	8B	_	8d 8b	with-	.	.	.
.	.	8A	by	[8d [8a	-out	.	.	.
=71	=71	=71	=71	=71	=71	=71	=71	=71
1DM	D:maj	2r	.	4d] 4a]	_	.	160.501	.
.	.	.	.	8eq	_	.	.	.
.	.	.	.	8A 8f#	you	.	.	.
.	.	.	.	[8A [8e	here	.	.	.
.	.	4r	.	4A] 4e]	_	.	.	.
.	.	.	.	8Bq	_	.	.	.
.	.	8c#	so	8A 8c#	to-	.	.	.
.	.	[8B	right	[8G# [8B	-night!	.	.	.
=72	=72	=72	=72	=72	=72	=72	=72	=72
1EM	E:maj	2B_	_	2G#_ 2B]	_	.	162.778	.
.	.	8B]	_	8G#]	_	.	.	.
.	.	8Aq	_	8F#q	_	.	.	.
.	.	8B	_	8G#	_	.	.	.
.	.	8Aq	_	8F#q	_	.	.	.
.	.	8B	_	8G#	_	.	.	.
.	.	8Aq	_	8F#q	_	.	.	.
.	.	16B	_	16G#	_	.	.	.
.	.	16A	_	16F#	_	.	.	.
=73	=73	=73	=73	=73	=73	=73	=73	=73
4EM	E:maj	2G#	_	2E	_	.	165.056	.
4F#mm	F#:min7	.	.	.	.	.	165.625	.
2EM	E:maj/3	2r	.	8G#	(Vocalizing)	.	166.194	.
.	.	.	.	8F#	_	.	.	.
.	.	.	.	8E	_	.	.	.
.	.	.	.	[8G	_	.	.	.
=74	=74	=74	=74	=74	=74	=74	=74	=74
*>Letter>A	*>Letter>A	*>Letter>A	*>Letter>A	*>Letter>A	*>Letter>A	*>Letter>A	*>Letter>A	*>Letter>A
*>Label>Solo	*>Label>Solo	*>Label>Solo	*>Label>Solo	*>Label>Solo	*>Label>Solo	*>Label>Solo	*>Label>Solo	*>Label>Solo
1CM	C:maj	1r	.	4G]	_	.	167.333	newline
.	.	.	.	4r	.	.	.	.
.	.	.	.	2r	.	.	.	.
=75	=75	=75	=75	=75	=75	=75	=75	=75
1DM	D:maj	1r	.	1r	.	.	169.635	.
=76	=76	=76	=76	=76	=76	=76	=76	=76
1EM	E:maj	1r	.	1r	.	.	171.938	.
=77	=77	=77	=77	=77	=77	=77	=77	=77
4EM	E:maj	1r	.	1r	.	.	174.24	.
4F#mm	F#:min7	.	.	.	.	.	174.816	.
2EM	E:maj/3	.	.	.	.	.	175.391	.
=78	=78	=78	=78	=78	=78	=78	=78	=78
1CM	C:maj	1r	.	1r	.	.	176.542	newline
=79	=79	=79	=79	=79	=79	=79	=79	=79
1DM	D:maj	1r	.	1r	.	.	178.821	.
=80	=80	=80	=80	=80	=80	=80	=80	=80
1EM	E:maj	1r	.	1r	.	.	181.099	.
=81	=81	=81	=81	=81	=81	=81	=81	=81
4EM	E:maj	1r	.	2r	.	.	183.378	.
4F#mm	F#:min7	.	.	.	.	.	183.948	.
2EM	E:maj/3	.	.	8G# 8B	Ooh	.	184.517	.
.	.	.	.	8A 8c	_	.	.	.
.	.	.	.	8B 8d	_	.	.	.
.	.	.	.	[8c [8e	_	.	.	.
=82	=82	=82	=82	=82	=82	=82	=82	=82
1CM	C:maj	1r	.	4.c] 4.e]	_	.	185.656	newline
.	.	.	.	[8B [8d	_	.	.	.
.	.	.	.	4.B] 4.d]	_	.	.	.
.	.	.	.	[8A [8c	_	.	.	.
=83	=83	=83	=83	=83	=83	=83	=83	=83
1DM	D:maj	1r	.	2A] 2c]	_	.	187.947	.
.	.	.	.	4.F# 4.A	_	.	.	.
.	.	.	.	[8G# [8B	_	.	.	.
=84	=84	=84	=84	=84	=84	=84	=84	=84
1EM	E:maj	1r	.	1G#] 1B]	_	.	190.239	.
=85	=85	=85	=85	=85	=85	=85	=85	=85
4EM	E:maj	1r	.	4r	.	.	192.53	.
4F#mm	F#:min7	.	.	8r	.	.	193.102	.
.	.	.	.	8r	.	.	.	.
2EM	E:maj/3	.	.	8G# 8B	Ooh	.	193.675	.
.	.	.	.	8A 8c	_	.	.	.
.	.	.	.	8B 8d	_	.	.	.
.	.	.	.	[8c [8e	_	.	.	.
=86	=86	=86	=86	=86	=86	=86	=86	=86
1CM	C:maj	1r	.	4.c] 4.e]	_	.	194.821	newline
.	.	.	.	[8B [8d	_	.	.	.
.	.	.	.	4.B] 4.d]	_	.	.	.
.	.	.	.	[8A [8c	_	.	.	.
=87	=87	=87	=87	=87	=87	=87	=87	=87
1DM	D:maj	1r	.	2A] 2c]	_	.	197.106	.
.	.	.	.	4.F# 4.A	_	.	.	.
.	.	.	.	[8G# [8B	_	.	.	.
=88	=88	=88	=88	=88	=88	=88	=88	=88
1EM	E:maj	1r	.	1G#] 1B]	_	.	199.392	.
=89	=89	=89	=89	=89	=89	=89	=89	=89
4EM	E:maj	8r	.	4r	.	.	201.678	.
.	.	8B	And	.	.	.	.	.
4F#mm	F#:min7	8B	now	8r	.	.	202.249	.
.	.	8B	there's	8r	.	.	.	.
2EM	E:maj/3	8e	some-	8G# 8B	Ooh	.	202.82	.
.	.	8B	-thing	8A 8c	_	.	.	.
.	.	8e	a	8B 8d	_	.	.	.
.	.	8dq	_	.	.	.	.	.
.	.	[8e	bout	[8c [8e	_	.	.	.
=90	=90	=90	=90	=90	=90	=90	=90	=90
*>Letter>A	*>Letter>A	*>Letter>A	*>Letter>A	*>Letter>A	*>Letter>A	*>Letter>A	*>Letter>A	*>Letter>A
*>Label>Fadeout	*>Label>Fadeout	*>Label>Fadeout	*>Label>Fadeout	*>Label>Fadeout	*>Label>Fadeout	*>Label>Fadeout	*>Label>Fadeout	*>Label>Fadeout
1CM	C:maj	8e]	_	4.c] 4.e]	_	.	203.963	newline
.	.	4d	you	.	.	.	.	.
.	.	8r	.	[8B [8d	_	.	.	.
.	.	8c	yeah	4.B] 4.d]	_	.	.	.
.	.	4B	_	.	.	.	.	.
.	.	[8A	_	[8A [8c	_	.	.	.
=91	=91	=91	=91	=91	=91	=91	=91	=91
1DM	D:maj	4.A]	_	2A] 2c]	_	.	206.265	.
.	.	8r	.	.	.	.	.	.
.	.	2r	.	4.F# 4.A	_	.	.	.
.	.	.	.	[8G# [8B	_	.	.	.
=92	=92	=92	=92	=92	=92	=92	=92	=92
1EM	E:maj	1r	.	1G#] 1B]	_	.	208.567	.
=93	=93	=93	=93	=93	=93	=93	=93	=93
4EM	E:maj	4r	.	4r	.	.	210.869	.
4F#mm	F#:min7	8B	And	8r	.	.	211.444	.
.	.	8B	I	8r	.	.	.	.
2EM	E:maj/3	8B	could-	8G# 8B	Ooh	.	212.02	.
.	.	4B	-n't	8A 8c	_	.	.	.
.	.	.	.	8B 8d	_	.	.	.
.	.	[8c	live	[8c [8e	_	.	.	.
=94	=94	=94	=94	=94	=94	=94	=94	=94
1CM	C:maj	4c]	_	4.c] 4.e]	_	.	213.17	newline
.	.	8d	with-	.	.	.	.	.
.	.	[8B	-out	[8B [8d	_	.	.	.
.	.	8B]	_	4.B] 4.d]	_	.	.	.
.	.	4.A	you	.	.	.	.	.
.	.	.	.	[8A [8c	_	.	.	.
=95	=95	=95	=95	=95	=95	=95	=95	=95
1DM	D:maj	2r	.	2A] 2c]	_	.	215.318	.
.	.	4r	.	4.F# 4.A	_	.	.	.
.	.	8d	to-	.	.	.	.	.
.	.	[8B	-night	[8G# [8B	_	.	.	.
=96	=96	=96	=96	=96	=96	=96	=96	=96
1EM	E:maj	4.B]	_	1G#] 1B]	_	.	217.466	.
.	.	8r	.	.	.	.	.	.
.	.	2r	.	.	.	.	.	.
=97	=97	=97	=97	=97	=97	=97	=97	=97
4EM	E:maj	1r	.	1r	.	.	219.614	.
4F#mm	F#:min7	.	.	.	.	.	220.151	.
2EM	E:maj/3	.	.	.	.	.	220.688	.
=98	=98	=98	=98	=98	=98	=98	=98	=98
1CM	C:maj	1r	.	1r	.	.	221.762	.
1r;	1r	r;	.	r;	.	.	223.91	.
1r;	1r	r;	.	r;	.	.	227.265	.
*-	*-	*-	*-	*-	*-	*-	*-	*-
!!!BillboardChartDate: 1986/03/22, 1986/07/05
!!!BillboardPeak: 7, 7
!!!BillboardWeeksOnChart: 27, 27
!!!COC: Level 42
!!!ENC: Nathaniel Condit-Schultz
!!!EST: Awating manual error checking and editing.
!!!OTL: Something About You
!!!RDF**chordsym: original McGill chord annotation + (implied pitch class set, with bass pitch in first position)
!!!RDF**harmony: **recip + pitch class of root + harmonic quality
!!!RDF**leadinstrument: original McGill primary instrumentation annotation
!!!RDF**phrase: newline = linebreak in original McGill transcription
!!!RDF**timestamp: McGill audio timestamp in seconds
!!!RDT: 2017/01/12/
!!!SampleActualRank: 52, 34
!!!SampleID#: 158, 1237
!!!SampleTargetRank: 52, 34
!!!MBID: 8ac87770-3459-4206-9312-07b4de5e93b7
